X:360
T:Donegal Reel
M:4/4
L:1/8
K:D major
"D"D3 E FEFA | BFAF dFAF | "Em"E2 EF G2 GA | BdAF "A"EGFE |\
"D"D3 E FEFA |
BFAF ABde | "G"f2 ef "Em"dBAG | "A"FG EF "D"D4 :|\
|: "D"defg afdf | afdf "B"a2 gf | "Em"e3 f gfed |
 "A"cdef g2 fe |"D"defg afdf | afdf "Bm"a2 ag | "A"f2 ef dBAG |\
 FGEF "D"D4 :|


